!!!!SEGMENT: pl-wtm--a-43-186-99--001-004_fitelberg-grzegorz--szesc-piesni-op-22-no-4-moje-usta.krn
!!!cenid: 19xx:99
!!!COM: Fitelberg, Grzegorz
!!!COM-rismID: pe41023683
!!!CDT: 1879-1953
!!!CNT: Polish
!!!GTL: Sześć pieśni Op. 22
!!!OTL: No. 4. Moje usta
!!!OMV: 004
!!!PDT:
!!!AGN: Secular; Song
!!!YEC: Copyright 2022 Narodowy Instytut Fryderyka Chopina (https://polishscores.org)
!!!YEM: License CC-BY-4.0 (https://creativecommons.org/licenses/by/4.0)
!!!SMS-siglum: PL-Wtm
!!!SMS-shelfmark: A-43.186/99
!!!SMS-variant:
!!!SMS-altvar:
!!!SMS-shelfwork: 001-004 G
!!!NIFC-rismSourceID: 1001135590
!!!NIFC-rismChildID: 1001135614
!!!NIFC-islandoraID: pl-wtm:4771
!!!URL-pdf-islandora: https://repozytorium.nifc.pl/islandora/object/pl-wtm%3A4771/datastream/PDF/view
!!!URL-scan: https://polish.musicsources.pl/pl/lokalizacje/galeria/druki-muzyczne/15759/6 @EN{Scan on Polish Music Sources Website} @PL{Skany w portalu Dziedzictwo Muzyki Polskiej w otwartym dostępie}
!!!IIIF:
!!!ONB-nifc:
!!!OMD: Molto agitato.
!!!AIN: 1 piano 1 vox
!!!key: none
**kern	**kern	**dynam	**kern	**text	**text	**dynam
*part2	*part2	*part2	*part1	*part1	*part1	*part1
*staff3	*staff2	*	*staff1	*staff1	*staff1	*
*ICklav	*ICklav	*	*ICvox	*	*	*
*Ipiano	*Ipiano	*	*Ivox	*	*	*
*I"Klavier	*I"Klavier	*	*I"Singstimme.	*	*	*
*clefF4	*clefG2	*	*clefG2	*	*	*
*k[]	*k[]	*	*k[]	*	*	*
*b-:	*b-:	*	*b-:	*	*	*
*M2/2	*M2/2	*	*M2/2	*	*	*
*met(c|)	*met(c|)	*	*met(c|)	*	*	*
=1	=1	=1	=1	=1	=1	=1
!	!	!LO:DY:rj	!	!	!	!LO:DY:a:rj
4BBB-X^\ 4CC 4BB-X	16c^>/LL 16e	ff	4e^>/	Mei-	Mo-	ff
.	16E</	.	.	.	.	.
.	16c/	.	.	.	.	.
.	16e/JJ	.	.	.	.	.
4AAA^\ 4CC#X 4AA	16c#X^>/LL 16f	.	4f^>/	-ne	-je	.
.	16F</	.	.	.	.	.
.	16c#/	<	.	.	.	.
.	16f/JJ	.	.	.	.	.
!	!	!	!	!	!	!LO:HP:a
4GGG#X^/ 4DD 4GG#X	16b^>/LL 16dd	.	4dd^\	Lip-	u-	<
.	16d/	.	.	.	.	.
.	16f#X/ 16b	.	.	.	.	.
.	16dd/JJ	.	.	.	.	.
4GGGn^/ 4CC#X 4GGn	16fn^>/LL 16b	.	4b^\	-pen	-sta	[[
.	16B/	.	.	.	.	.
.	16c#X/ 16f	.	.	.	.	.
.	16b/JJ	[[	.	.	.	.
=2	=2	=2	=2	=2	=2	=2
!	!	!	!	!	!	!LO:DY:a:rj
4EEE^/ 4BBB 4EE	4gg#X^>\ 4bb 4eee 4ggg#X	fff	[1gg#X^	bren-	pło-	fff
4AA#X^\ 4A#X	8.B^>/L 8.e 8.g#X 8.b	.	.	.	.	.
.	16c#X^>/Jk 16cc#X	.	.	.	.	.
4AAn^\ 4An	4d#X^>/ 4dd#X	.	.	.	.	.
4GG#X^\ 4G#X	8.e^>/L 8.b 8.ee	.	.	.	.	.
.	16f#X^>/Jk 16ff#X	.	.	.	.	.
!!LO:LB:g=original
=3	=3	=3	=3	=3	=3	=3
8.FF#X^/L 8.F#X	4f##X^\ 4b 4ee 4ff##X	<	4.gg#\]	.	.	.
16FFn/Jk 16Fn	.	.	.	.	.	.
!LO:TUP:b	!	!	!	!	!	!
12EE/L 12E	8g#X\L 8b 8ee 8gg#X	.	.	.	.	.
12DDn/ 12Dn	.	.	.	.	.	.
!	!	!	!	!	!	!LO:HP:a
.	8a#X\J 8aa#X	.	8b\	-nen	-ną	>
12CCn/J 12Cn	.	.	.	.	.	.
4.BBB-X~/ 4.BB-X	(((8b\ [<8ddn [>8ee#X [>8gg#X 8bb	[	4b\	so	od	.
.	4b#X\)) 4dd] 4ee#] 4gg#] 4bb#X	>	.	.	.	.
!	!	!	!	!	!	!LO:DY:a
!	!	!	!	!	!	!LO:HP:a
.	.	.	8b#X\	von	po-	] f <
(8BBBn^/ 8BBn	[8cc#X\ [8dd#X [8ff#X [8aa# [8ccc#X	]]	8cc#X\	den	-ca-	[[
=4	=4	=4	=4	=4	=4	=4
6A\ 6f#X	4cc#\]) 4dd#] 4ff#] 4aa#] 4ccc#]	f	2.cc#X^\	Küs-	-łun-	.
6d#X^\	.	.	.	.	.	.
.	4r	.	.	.	.	.
6G#X\ 6e#X	.	.	.	.	.	.
6dn^\	2r	.	.	.	.	.
6Gn\ 6en	.	.	.	.	.	.
.	.	.	4a/	-sen,	-ków	.
6c#X^\)	.	.	.	.	.	.
=5	=5	=5	=5	=5	=5	=5
(6D#X^\ 6cn	2r	.	4e#X/	die	nie-	.
6F#X\	.	.	.	.	.	.
.	.	.	4f#X/	sie	-od-	.
6D#^\ 6B	.	.	.	.	.	.
6F#\	8r	.	4ee-X\	nicht	-da-	.
.	(4b#X\ 4bb#X	.	.	.	.	.
6D#^\) 6A#X	.	<	.	.	.	.
.	.	.	4dd\	ge-	.	.
(6BBB^/ 6BB	.	.	.	.	.	.
.	8cc#X\) 8ccc#X	[[	.	.	.	.
!!LO:LB:g=original
=6	=6	=6	=6	=6	=6	=6
6A\ 6f#X	2.cc#X\ 2.ccc#X	.	2.cc#X\	-küsst,	-nych,	.
6d#X^\	.	.	.	.	.	.
6G#X\ 6e#X	.	.	.	.	.	.
6dn^\	.	.	.	.	.	.
6Gn\ 6en	.	.	.	.	.	.
.	4a\ 4aa	.	4r	.	.	.
6c#X^\)	.	.	.	.	.	.
=7	=7	=7	=7	=7	=7	=7
!	!LO:TUP:a	!	!	!	!	!
(6D#X^>\ 6cn	6e#X\ 6ee#X	.	2r	.	.	.
6F#X\	6f#X\ 6ff#X	.	.	.	.	.
6D#^>\ 6B	6a\ 6aa	.	.	.	.	.
!LO:TUP:b	!LO:TUP:a	!	!	!	!	!
6F#\)	6b\ 6bb	.	8r	.	.	.
!	!	!	!	!	!	!LO:HP:a
.	.	.	4ccn\	von	od	<
(>6BBB^>/	6cc\ 6ccc	.	.	.	.	.
6BB^>/	6cc#X\ 6ccc#X	.	.	.	.	.
.	.	.	8cc#X\	der	tę-	[
=8	=8	=8	=8	=8	=8	=8
6B-X\ 6g	2.dd\ 2.ddd	.	2.dd^\	Sehn-	-skno-	.
6e^\	.	.	.	.	.	.
6A\ 6f#X	.	.	.	.	.	.
6d#X^\	.	.	.	.	.	.
6A-X\ 6fn	.	.	.	.	.	.
.	4r	.	4b-X\	-sucht	-ty	.
6dn^\)	.	.	.	.	.	.
!!LO:LB:g=original
=9	=9	=9	=9	=9	=9	=9
(6E^\ 6c#X	2r	.	4f#X/	die	co	.
6G\	.	.	.	.	.	.
.	.	.	4g/	mein	mi	.
6E^\ 6cn	.	.	.	.	.	.
6G\	8r	.	4ee\	Herz	du-	.
.	((4cc#X\ 4ccc#X	.	.	.	.	.
6E^\) 6B	.	.	.	.	.	.
.	.	.	4ee-X\	zer-	-szę	.
(6BBB^/ 6BB	.	.	.	.	.	.
.	8dd\)) 8ddd	.	.	.	.	.
=10	=10	=10	=10	=10	=10	=10
6B-X\ 6g	2.dd\ 2.ddd	.	2.dd\	-frisst.	żre.	.
6e^\	.	.	.	.	.	.
6A\ 6f#X	.	.	.	.	.	.
6d#X^\	.	.	.	.	.	.
6A-X\ 6fn	.	.	.	.	.	.
.	4b-X\ 4bb-X	.	4r	.	.	.
6dn^\)	.	.	.	.	.	.
=11	=11	=11	=11	=11	=11	=11
*	*	*^	*	*	*	*
!	!LO:TUP:a	!	!	!	!	!	!
6G\ 6e	6f#X\ 6ff#X	.	.	1r	.	.	.
6c#X^\	6g#X\ 6gg#X	<	.	.	.	.	.
6G\ 6e	6a#X\ 6aa#X	.	.	.	.	.	.
!LO:TUP:b	!	!	!LO:HP:a:t=molto cresc.	!	!	!	!
6BBB^>/ 6BB	8ccn\L 8cccn	.	<	.	.	.	.
.	8dd\ 8ddd	.	.	.	.	.	.
6BBB-X^>/ 6BB-X	.	.	.	.	.	.	.
.	8ee\ 8eee	.	.	.	.	.	.
!	!	!	!LO:DY:rj	!	!	!	!
(<6AAA^>/ 6AA	.	.	ff	.	.	.	.
.	8ff#X\J 8fff#X	[[	.	.	.	.	.
*	*	*v	*v	*	*	*	*
=12	=12	=12	=12	=12	=12	=12
*^	*	*	*	*	*	*
!	!	!	!	!	!	!	!LO:DY:a:rj
8G^\L) 8c#X 8g	2ryy	2.gg\ 2.ccc#X 2.ggg	ff	2.gg^\	Nim-	Smu-	ff
8A^\J 8a	.	.	.	.	.	.	.
2.B-X^\ 2.b-X	.	.	.	.	.	.	.
*	*8ba	*	*	*	*	*	*
.	2AAAA/ 2AAA	.	sfz	.	.	.	.
*	*X8ba	*	*	*	*	*	*
.	.	4ff#X^\ 4fff#X	.	4ff#X^\	-mer	-tna	.
!!LO:PB:g=original
=13	=13	=13	=13	=13	=13	=13	=13
2.G^\ 2.g	2ryy	4dd#X^\ 4ddd#X	.	4dd#X^\	werd	jest	.
.	.	4ff#X^\ 4fff#X	.	4ff#X^\	ich	na	.
.	2Bn^>/ 2bn	4ee^\ 4eee	.	4ee^\	mei-	wie-	.
4F#X^\ 4f#X	.	4ddn^\ 4dddn	.	4ddn^\	-ner	-ki	.
*v	*v	*	*	*	*	*	*
=14	=14	=14	=14	=14	=14	=14
4D#X^\ 4d#X	2b#X^\ 2gg 2aa 2bb#X	.	[1aa^	Lie-	mi-	.
4F#X^\ 4f#X	.	.	.	.	.	.
4E^\ 4e	2cc#X^\ 2gg 2aa 2ccc#X	.	.	.	.	.
4Dn^\ 4dn	.	.	.	.	.	.
=15	=15	=15	=15	=15	=15	=15
2BB#X^\ 2G 2A 2B#X	2.ee^\ 2.gg 2.aa 2.ddd#X	.	2.aa\]	.	.	.
4.C#X^\ 4.c#X	.	<	.	.	.	.
!	!	!	!	!	!	!LO:HP:a
.	(>32g\LLL	.	4a/	-be	-łość	<
.	32cc#X\	.	.	.	.	.
.	32aa\	.	.	.	.	.
.	32gg\	.	.	.	.	.
(8E\ 8G 8A 8c# 8e	32ccc#X\	.	.	.	.	.
*	*8va	*	*	*	*	*
.	32aaa\	.	.	.	.	.
.	32ggg\	.	.	.	.	.
.	32cccc#\JJJ	[[	.	.	.	.
=16	=16	=16	=16	=16	=16	=16
8AAA/) 8AA	8aaaa\)	fff	8a/	froh.	ma.	[
*	*X8va	*	*	*	*	*
8r	8r	.	8r	.	.	.
4r	4r	.	4r	.	.	.
2r;	2r;	.	2r;	.	.	.
!!LO:LB:g=original
=17	=17	=17	=17	=17	=17	=17
!	!	!	!	!	!	!LO:DY:a:rj
!	!	!	!	!	!	!LO:HP:a
4BBB-X^\ 4CC 4BB-X	16c^>/LL 16e	ff	4e^>/	Mei-	Ust	ff <
.	16E</	.	.	.	.	.
.	16c/	<	.	.	.	.
.	16e/JJ	.	.	.	.	.
4AAA^\ 4CC#X 4AA	16c#X^>/LL 16f	.	4f^>/	-ne	mych	.
.	16F</	.	.	.	.	.
.	16c#/	.	.	.	.	.
.	16f/JJ	.	.	.	.	.
4GGG#X^/ 4DD 4GG#X	16b^>/LL 16dd	.	4dd^>\	Lip-	ko-	.
.	16d/	.	.	.	.	.
.	16f#X/ 16b	.	.	.	.	.
.	16dd/JJ	.	.	.	.	.
4GGGn^/ 4CC#X 4GGn	16fn^>/LL 16b	.	4b^>\	-pen	-ral	.
.	16B/	.	.	.	.	.
.	16c#X/ 16f	.	.	.	.	.
.	16b/JJ	[[	.	.	.	[[
=18	=18	=18	=18	=18	=18	=18
!	!	!	!	!	!	!LO:DY:a:rj
4EEE^/ 4BBB 4EE	4gg#X^\ 4bb 4eee 4ggg#X	fff	[1gg#X^	bren-	pło-	fff
!	!LO:TX:b:i:t=molto agitato-:ext=s:ext=cd	!	!	!	!	!
4AA#X^\ 4A#X	8.B^>/L 8.e 8.g#X 8.b	.	.	.	.	.
.	16c#X^>/Jk 16cc#X	.	.	.	.	.
4AAn^\ 4An	4d#X^>/ 4dd#X	.	.	.	.	.
4GG#X^\ 4G#X	8.e^>/L 8.b 8.ee	.	.	.	.	.
.	16f#X^>/Jk 16ff#X	.	.	.	.	.
=19	=19	=19	=19	=19	=19	=19
!	!	!	!	!	!	!LO:HP:a
4FF#X^/ 4F#X	8f##X^\ 8b 8ee 8ff##X	.	4.gg#\]	.	.	<
.	4g#X^\ 4gg#X	<	.	.	.	.
4EE^/ 4E	.	.	.	.	.	.
.	4a#X^\ 4aa#X	.	8e/	-nen	-nie	.
4DDn^/ 4Dn	.	.	4e/	so.	wciąż.	[
.	[8ccn^\ [8cccn	.	.	.	.	.
[<4CCn^/ [<4Cn	4cc\] 4ccc]	[[	4r	.	.	.
*	*clefF4	*	*	*	*	*
!!LO:LB:g=original
=20	=20	=20	=20	=20	=20	=20
*^	*	*	*	*	*	*
!	!	!	!LO:DY:rj	!	!	!	!
12r	1CC_ 1C_	4CCC/	sfz	1r	.	.	.
([<12f/L	.	.	.	.	.	.	.
12f/J_< [12a	.	.	.	.	.	.	.
*	*	*clefG2	*	*	*	*	*
4f/]) 4a]	.	(2ff\ 2aa	.	.	.	.	.
12r	.	.	.	.	.	.	.
([<12d-X/L	.	.	.	.	.	.	.
12d-/J_< [12f	.	.	.	.	.	.	.
4d-/]) 4f]	.	[4dd-X\ [4ff	.	.	.	.	.
=21	=21	=21	=21	=21	=21	=21	=21
*	*	*^	*	*	*	*	*
*Xtuplet	*	*	*	*	*	*	*	*
12r	1CC_ 1C_	4dd-\] 4ff]	2ryy	.	1r	.	.	.
!LO:TX:a:i:t=poco a poco dim. e allargando_:ext=s:ext=ud	!	!	!	!	!	!	!	!
([<12c-X/L	.	.	.	.	.	.	.	.
12c-/J_< [12e-X	.	.	.	.	.	.	.	.
!	!	!	!	!LO:HP:a	!	!	!	!
12c-/L] 12e-]	.	4cc-X\ 4ee-X	.	<	.	.	.	.
[<12B-X/ [12dn	.	.	.	.	.	.	.	.
12B-/J_< 12d_ [12f#X	.	.	.	.	.	.	.	.
12B-/L] 12d] 12f#]	.	4ff#X^/	([2b-X\ 2ddn	[	.	.	.	.
[<12B-/ [12d	.	.	.	.	.	.	.	.
12B-/J_< 12d_ [12g	.	.	.	.	.	.	.	.
12B-/L] 12d] 12g]	.	[4gg/	.	.	.	.	.	.
[<12B-/ [12d-X	.	.	.	.	.	.	.	.
12B-/J_< 12d-_ [12g	.	.	.	.	.	.	.	.
=22	=22	=22	=22	=22	=22	=22	=22	=22
12B-/L] 12d-] 12g]	2CC\] 2C]	(4gg/]	4b-\_) [4dd-X	.	1r	.	.	.
[<12B-X/ [12d-X	.	.	.	.	.	.	.	.
12B-/J_< 12d-_ [12en	.	.	.	.	.	.	.	.
8B-/]) 8d-] 8e]	.	8een/))	8b-\] 8dd-]	.	.	.	.	.
8r	.	8r	8ryy	.	.	.	.	.
2ryy	[2CCC/ [2CC	4r	8r	.	.	.	.	.
.	.	.	(>[8B-X\ [8dn	.	.	.	.	.
.	.	[4f#X^/	4B-\_ 4d_	.	.	.	.	.
*v	*v	*	*	*	*	*	*	*
=23	=23	=23	=23	=23	=23	=23	=23
1CCC_ 1CC_	(4f#/]	(1B-_ 1d]	.	1r	.	.	.
.	[4g/)	.	.	.	.	.	.
.	(2e-X/ 2g_	.	.	.	.	.	.
*	*v	*v	*	*	*	*	*
=24	=24	=24	=24	=24	=24	=24
!	!LO:TX:b:i:t=rit.	!	!	!	!	!
1CCC] 1CC]	1B-]))) 1d-X 1en 1g]	[	1r	.	.	.
!!LO:LB:g=original
=25	=25	=25	=25	=25	=25	=25
*M4/4	*M4/4	*	*M4/4	*	*	*
!	!	!	!LO:TX:a:B:t=Andante.	!	!	!LO:DY:a:rj
4r	2F/ 2d-X 2f	p <	4f/	Un	Na	p
!	!	!	!	!	!	!LO:HP:a
4BBB-X~/ 4BB-X	.	.	4f/	die	po-	<
4r	2G/ 2d- 2f	[[	4g/	Au-	-wie-	.
4FFF~/ 4FF	.	.	4g/	-gen	-kach	[[
=26	=26	=26	=26	=26	=26	=26
*	*^	*	*	*	*	*
!	!	!LO:TX:t=P:problem=łuki	!	!	!	!	!LO:HP:a
4r	4r	N(NN(NNN(1A-X~ 1d-X 1f	>	2.a-X/	sind	cię-	>
!	!LO:TX:a:i:t=dolce	!	!	!	!	!	!
[2.DDDn/ [2.DDn	(4dd-X/ 4ddd-X	.	.	.	.	.	.
.	4cc/ 4ccc	.	.	.	.	.	.
.	[<4bn/ [>4bbn	.	.	4g/	so	-żą	.
=27	=27	=27	=27	=27	=27	=27	=27
*^	*	*	*	*	*	*	*
1An~NNN)NN)N) 1dn 1f#X	1DDDn] 1DDn]	4b/] 4bb]	1ddn 1ff#X	] pp >	4f#X/	schwer	łzy,	]
.	.	2b-X/ 2bb-X	.	.	4r	.	.	.
!	!	!	!	!	!LO:TX:a:i:t=molto espressivo	!	!	!LO:HP:a
.	.	.	.	.	4g#X/	von	łzy	<
.	.	4an/) 4aan	.	]]	4a/	den	ta-	[[
*v	*v	*	*	*	*	*	*	*
*	*v	*v	*	*	*	*	*
=28	=28	=28	=28	=28	=28	=28
8r	2r	.	(2.dd\	Trä-	-je-	.
NNNN(8AAA-X/L	.	.	.	.	.	.
[8AA-X/	.	<	.	.	.	.
8AA-/J_ [8G-X	.	.	.	.	.	.
(2AA-\_ 2G-]	((8c/	[	.	.	.	.
.	([4c/)) [4cc	>	.	.	.	.
!	!	!	!	!	!	!LO:HP:a
.	.	.	4ee-X\)	.	.	>]
.	8c/]NNNN) 8g-X 8cc]	.	.	.	.	.
!!LO:PB:g=original
=29	=29	=29	=29	=29	=29	=29
*^	*	*	*	*	*	*
4ryy	8AA-\L]) 8F	(>4c-X/ 4f 4cc-X	]	2ee-X\	-nen,	-mne,	.
.	NNNNN(8AAA-X\	.	.	.	.	.	.
[4E~/	8En\	[>4en~/	.	.	.	.	.
.	[8AA-X\J	.	.	.	.	.	.
!	!	!	!	!	!	!	!LO:HP:a
4.E/]	2AA-\_	[8c-/ 8e_	.	4g#X/	die	nie-	<
.	.	4c-/_ 4e] [4cc-	.	.	.	.	.
.	.	.	.	4a/	kein	-zga-	[[
[8F~/NNNNN)	.	8c-/]) [>8f 8cc-]	.	.	.	.	.
=30	=30	=30	=30	=30	=30	=30	=30
*	*	*^	*	*	*	*	*
4AA-y/ 4F]	8AA-\L]	1cn 1ccn	(>4f\]	.	2.dd\	Blick	-dnio-	.
.	(>8AAA-X\J	.	.	.	.	.	.	.
!	!	!LO:TX:b:i:t=espressivo	!	!	!	!	!	!
4G-X/	8G-\L	.	4g-X\	.	.	.	.	.
.	[8AA-X\J	.	.	.	.	.	.	.
*tuplet	*	*	*	*	*	*	*	*
6A-X/	2AA-\_	.	6a-X\	.	.	.	.	.
6An/	.	.	6an\	.	.	.	.	.
!	!	!	!	!	!	!	!	!LO:HP:a
.	.	.	.	.	4ee-X\	ge-	.	>
6B-X/)	.	.	6b-X\)	.	.	.	.	.
=31	=31	=31	=31	=31	=31	=31	=31	=31
4AA-y/ 4F	8AA-\L]	((2c-X/ 2cc-X	(4f\	.	4ee-X\	-sehn,	-ne,	]
.	(>8AAA-X\J	.	.	.	.	.	.	.
2E/	8En\L	.	(2en\)	.	4r	.	.	.
.	[8AA-X\J	.	.	.	.	.	.	.
.	8AA-\L])	2B-X/)) 2b-X	.	.	4b-X\	die	w któ-	.
.	(>8GGG\J 8GG	.	.	.	.	.	.	.
4ryy	8F\L)	.	4f\)	.	4b-\	mir	-rych	.
.	[<8GGG-X\J [<8GG-X	.	.	.	.	.	.	.
*	*	*v	*v	*	*	*	*	*
!!LO:LB:g=original
=32	=32	=32	=32	=32	=32	=32	=32
*	*^	*	*	*	*	*	*
!	!	!	!LO:TX:b:i:t=dolce	!	!	!	!	!
1F~ 1f	1GGG-_ 1GG-_	(4B--\ 4d-X	(4b--\ 4dd-X 4bb--	.	4b--\	fin-	du-	.
.	.	2A-X\ 2c	2a-X\ 2cc 2aa-X	>	4a-X/	-ster	-sza	.
.	.	.	.	.	4a-/	in	mo-	.
.	.	[4Gn\) [4Bn	[4gn\ [4bn [4ggn	.	4g/	der	-ja	.
=33	=33	=33	=33	=33	=33	=33	=33	=33
1En~ 1en	4GGG-\] 4GG-]	2G\] 2B]	2g\]) 2b] 2gg]	]	2.g/	See-	to-	.
.	[2.GGG-X\ [2.GG-X	.	.	<	.	.	.	.
.	.	(4A-X\ 4c	(4a-X\ 4cc 4aa-X	.	.	.	.	.
.	.	[4B--\ [4d-X	[4b--\ [4dd-X [4bb--	[[	4en/	-le	.	.
=34	=34	=34	=34	=34	=34	=34	=34	=34
1F~ 1f	1GGG-_ 1GG-_	(>(>4B--\]) 4d-]	4b--\] 4dd-] 4bb--]	.	2.f/	stehn	-nie	.
.	.	(>(>2A-X\)) 2c	2a-X\ 2cc 2aa-X	>	.	.	.	.
.	.	[4Gn\)) [4Bn	[4gn\ [4bn [4ggn	.	4r	.	.	.
=35	=35	=35	=35	=35	=35	=35	=35	=35
2En~/ 2en	4GGG-\] 4GG-]	4G\] 4B]	1g_ 1b_ 1gg_	]	1r	.	.	.
!	!	!	!	!LO:HP:t=dim._:ext=ud	!	!	!	!
.	[2.FFF\ [2.FF	4ryy	.	>	.	.	.	.
[2E-X~/ [2e-X	.	2ryy	.	.	.	.	.	.
*v	*v	*v	*	*	*	*	*	*
=36	=36	=36	=36	=36	=36	=36
*M2/4	*M2/4	*	*M2/4	*	*	*
*^	*	*	*	*	*	*
!	!	!	!	!	!	!	!LO:DY:a
4E-/] 4e-]	4FFF\] 4FF]	4g\]) 4b] 4gg]	]	4e-X/	wie	ni-	pp
4ryy	4r	4r	.	4e-/	ein	-by	.
*v	*v	*	*	*	*	*	*
!!LO:LB:g=original
=37	=37	=37	=37	=37	=37	=37
*M4/4	*M4/4	*	*M4/4	*	*	*
*	*	*^	*	*	*	*
!	!	!LO:DY:b	!	!	!	!	!
4r	2E-X~/ 2c-X 2e-X	pp	.	4e-X/	wei-	w jas-	.
4AAA-X~/ 4AA-X	.	.	.	4e-/	-tes	-nej	.
4r	2F~/ 2c- 2e-	<	.	4f/	to-	gorz-	.
4EEE-X~/ 4EE-X	.	.	.	4f/	-ten-	-kiej	.
=38	=38	=38	=38	=38	=38	=38	=38
4r	(>2.G-X~/ 2.c-X 2.e-X	[	.	2.f#X/	-stil-	fa-	.
[2.CCCn~/ [2.CCn	.	.	.	.	.	.	.
!	!	!	!	!	!	!	!LO:HP:a
.	[<4Gn/ [>4cn [>4en	>	.	4g/	-les	-li	>
=39	=39	=39	=39	=39	=39	=39	=39
2CCC/] 2CC]	2G/]) 2c] 2e]	]	.	2g/	Meer....	mórz.	.
!	!LO:TX:b:i:t=dolcissimo	!LO:HP:a	!LO:HP:a	!	!	!	!
(>4F#X/	(>4f#X/ 4ff#X	<	<	2r	.	.	]
4G/	4g/ 4gg	.	.	.	.	.	.
=40	=40	=40	=40	=40	=40	=40	=40
*^	*^	*	*	*	*	*	*
2.c/	4r	2.cc/ 2.ccc	4r	[	[	1r	.	.	.
.	(4GG-X~\ 4F-X	.	(4B-X~\ 4f-X 4b-X	.	.	.	.	.	.
.	4G-X~\) 4f-X	.	4b-~\) 4ff-X 4bb-X	.	.	.	.	.	.
[4d-X/)	4r	[4dd-X/) [4ddd-X	4r	.	.	.	.	.	.
=41	=41	=41	=41	=41	=41	=41	=41	=41	=41
!	!	!	!	!LO:HP:a	!LO:HP:a	!	!	!	!
2d-/]	(4GG-X~\ 4E-X	2dd-/] 2ddd-]	(4An~\ 4e-X 4an	>	>	1r	.	.	.
.	4G-X~\) 4e-X	.	4a~\) 4ee-X 4aan	]	]	.	.	.	.
!	!	!	!	!LO:HP:a	!LO:HP:a	!	!	!	!
(4F#X/	2r	(4f#X/ 4ff#X	2r	<	<	.	.	.	.
4G-/)	.	4g/ 4gg	.	.	.	.	.	.	.
!!LO:LB:g=original
=42	=42	=42	=42	=42	=42	=42	=42	=42	=42
(2.c/	4r	2.cc/ 2.ccc	4r	[	[	1r	.	.	.
.	(4GG-X~\ 4F-X	.	(4B-X~\ 4f-X 4b-X	.	.	.	.	.	.
.	4G-X~\) 4f-X	.	4b-X~\) 4ff-X 4bb-X	.	.	.	.	.	.
!	!	!	!	!LO:HP:a	!LO:HP:a	!	!	!	!
[4d-X/	4r	[4dd-X/ [4ddd-X	4r	>	>	.	.	.	.
=43	=43	=43	=43	=43	=43	=43	=43	=43	=43
2.d-;/])	(4GG-X~\ 4E-X	2.dd-;/]) 2.ddd-]	4An\ 4e-X 4an	.	.	1r	.	.	.
.	2G-X~;\) 2e-X	.	2a;\ 2ee-X 2aan	]	]	.	.	.	.
4ryy	4r	4ryy	4r	.	.	.	.	.	.
*	*	*	*	*v	*v	*	*	*	*
*v	*v	*	*	*	*	*	*	*
*	*v	*v	*	*	*	*	*
=44	=44	=44	=44	=44	=44	=44
!	!	!	!	!	!	!LO:DY:a
4r	2F~/ 2d-X 2f	ppp	4f/	Mei-	Pło-	ppp
4BBB-X~/ 4BB-X	.	<	4f/	-ne	-ną	.
4r	2G~/ 2d- 2f	.	4g/	Au-	o-	.
4FFF~/ 4FF	.	[[	4g/	-gen	-czy	.
=45	=45	=45	=45	=45	=45	=45
!	!	!	!	!	!	!LO:HP:a
4r	(((1A-X 1d-X 1f	>	4a-X/	trin-	mi	<
(2.DDDn/ 2.DDn	.	.	4dd-X\	-ken	od	[
!	!	!	!	!	!	!LO:HP:a
.	.	.	4cc-X\	dran	gorz-	>
.	.	.	4b-X\	sich	-kich	.
=46	=46	=46	=46	=46	=46	=46
1DDn;<) 1AAn 1Dn	1F#X;))) 1dn 1f#X	]] ppp	1an;	schwer.	łez.	]
==	==	==	==	==	==	==
*-	*-	*-	*-	*-	*-	*-
!!!system-decoration: s1{(s2,s3)}
!!!RDF**kern: < = below
!!!RDF**kern: > = above
!!!RDF**kern: N = linked
!!!RDF**kern: NN = linked
!!!RDF**kern: NNN = linked
!!!RDF**kern: NNNN = linked
!!!RDF**kern: NNNNN = linked
!!!ENC: Andrzej Gręziak
!!!END: 2023-10-06
!!!EED: Marta Chmielewska
!!!EEV: 2023-10-20
